svg/media/playlist_2_fill.svg

<?xml version="1.0" encoding="UTF-8"?>
<svg width="24px" height="24px" viewBox="0 0 24 24" version="1.1" xmlns="http://www.w3.org/2000/svg" xmlns:xlink="http://www.w3.org/1999/xlink">
    <title>playlist_2_fill</title>
    <g id="Icon" stroke="none" stroke-width="1" fill="none" fill-rule="evenodd">
        <g id="Media" transform="translate(-624.000000, -240.000000)">
            <g id="playlist_2_fill" transform="translate(624.000000, 240.000000)">
                <path d="M24,0 L24,24 L0,24 L0,0 L24,0 Z M12.5935,23.2578 L12.5819,23.2595 L12.5109,23.295 L12.4919,23.2987 L12.4767,23.295 L12.4057,23.2595 C12.3958,23.2564 12.387,23.259 12.3821,23.2649 L12.378,23.2758 L12.3609,23.7031 L12.3659,23.7235 L12.3769,23.7357 L12.4805,23.8097 L12.4953,23.8136 L12.5071,23.8097 L12.6107,23.7357 L12.6233,23.7197 L12.6267,23.7031 L12.6096,23.2758 C12.6076,23.2657 12.601,23.2593 12.5935,23.2578 Z M12.8584,23.1453 L12.8445,23.1473 L12.6598,23.2397 L12.6499,23.2499 L12.6472,23.2611 L12.6651,23.6906 L12.6699,23.7034 L12.6784,23.7105 L12.8793,23.8032 C12.8914,23.8069 12.9022,23.803 12.9078,23.7952 L12.9118,23.7812 L12.8777,23.1665 C12.8753,23.1546 12.8674,23.147 12.8584,23.1453 Z M12.143,23.1473 C12.1332,23.1424 12.1222,23.1453 12.1156,23.1526 L12.1099,23.1665 L12.0758,23.7812 C12.0751,23.7927 12.0828,23.8019 12.0926,23.8046 L12.1083,23.8032 L12.3092,23.7105 L12.3186,23.7024 L12.3225,23.6906 L12.3404,23.2611 L12.3372,23.2485 L12.3278,23.2397 L12.143,23.1473 Z" id="MingCute" fill-rule="nonzero"></path>
                <path d="M17.7575,5.59141 L19,5.28078 L19,8.21922 L17,8.71922 L17,6.56155 C17,6.10268 17.3123,5.7027 17.7575,5.59141 Z M19.4851,10.1595 L17,10.7808 L17,17.5 C17,19.433 15.433,21 13.5,21 C11.567,21 10,19.433 10,17.5 C10,15.567 11.567,14 13.5,14 C14.0368,14 14.5454,14.1208 15,14.3368 L15,10 L15,6.56155 C15,5.18495 15.9369,3.985 17.2724,3.65112 L19.1362,3.18517 C20.0829,2.94849 21,3.66453 21,4.64039 L21,8.21922 C21,9.13696 20.3754,9.93692 19.4851,10.1595 Z M4,5 C3.44772,5 3,5.44771 3,6 C3,6.55228 3.44772,7 4,7 L12,7 C12.5523,7 13,6.55228 13,6 C13,5.44771 12.5523,5 12,5 L4,5 Z M3,12 C3,11.4477 3.44772,11 4,11 L9,11 C9.55228,11 10,11.4477 10,12 C10,12.5523 9.55228,13 9,13 L4,13 C3.44772,13 3,12.5523 3,12 Z M3,18 C3,17.4477 3.44772,17 4,17 L7,17 C7.55228,17 8,17.4477 8,18 C8,18.5523 7.55228,19 7,19 L4,19 C3.44772,19 3,18.5523 3,18 Z" id="形状" fill="#09244B"></path>
            </g>
        </g>
    </g>
</svg>

<svg xmlns="http://www.w3.org/2000/svg" width="24" height="24"><g fill="none" fill-rule="evenodd"><path d="M24 0v24H0V0h24ZM12.594 23.258l-.012.002-.071.035-.02.004-.014-.004-.071-.036c-.01-.003-.019 0-.024.006l-.004.01-.017.428.005.02.01.013.104.074.015.004.012-.004.104-.074.012-.016.004-.017-.017-.427c-.002-.01-.009-.017-.016-.018Zm.264-.113-.014.002-.184.093-.01.01-.003.011.018.43.005.012.008.008.201.092c.012.004.023 0 .029-.008l.004-.014-.034-.614c-.003-.012-.01-.02-.02-.022Zm-.715.002a.023.023 0 0 0-.027.006l-.006.014-.034.614c0 .012.007.02.017.024l.015-.002.201-.093.01-.008.003-.011.018-.43-.003-.012-.01-.01-.184-.092Z"/><path fill="#09244B" d="M17.758 5.591 19 5.281v2.938l-2 .5V6.562a1 1 0 0 1 .758-.97Zm1.727 4.568L17 10.782V17.5a3.5 3.5 0 1 1-2-3.163V6.562a3 3 0 0 1 2.272-2.91l1.864-.467A1.5 1.5 0 0 1 21 4.64v3.58a2 2 0 0 1-1.515 1.94ZM4 5a1 1 0 1 0 0 2h8a1 1 0 1 0 0-2H4Zm-1 7a1 1 0 0 1 1-1h5a1 1 0 1 1 0 2H4a1 1 0 0 1-1-1Zm0 6a1 1 0 0 1 1-1h3a1 1 0 1 1 0 2H4a1 1 0 0 1-1-1Z"/></g></svg>
